svgs/vibemusic.svg

<svg xmlns="http://www.w3.org/2000/svg" viewBox="0 0 192 192"><path fill="none" stroke="#000" stroke-linecap="round" stroke-linejoin="round" stroke-width="8" d="M157.62 114.282V91.731h8.157c9.484 0 9.557 22.551-.136 22.551ZM34.38 91.731v22.551h-8.157c-9.484 0-9.557-22.551.136-22.551Zm123.24 0c0-100.376-121.991-100.24-123.24 0m14.044-11.806v21.193m13.051-32.333v42.522m12.507-34.396v27.221m44.046 30.677v21.193m12.644-31.925v43.065m12.235-35.347v26.517"/><path fill="none" stroke="#000" stroke-linecap="round" stroke-linejoin="round" stroke-width="8" d="m104.026 76.911-.68 73.929c0 8.176-12.462 25.923-29.364 24.589-24.106-1.904-32.779-29.005-12.507-41.978 8.868-5.676 16.346-5.702 24.334-4.67l1.359-87.846c8.584 11.084 20.34 18.574 33.035 26.491 22.325 13.922 31.164 35.031 13.484 48.363-1.024-9.452-.571-19.416-10.629-25.743-6.178-4.468-12.711-9.273-19.032-13.135Z"/></svg>

<svg
    xmlns="http://www.w3.org/2000/svg"
    viewBox="0 0 192 192"
    id="vector">
    <path
        id="path"
        d="M 157.62 114.282 L 157.62 91.731 L 165.777 91.731 C 175.261 91.731 175.334 114.282 165.641 114.282 Z M 34.38 91.731 L 34.38 114.282 L 26.223 114.282 C 16.739 114.282 16.666 91.731 26.359 91.731 Z M 157.62 91.731 C 157.62 -8.645 35.629 -8.509 34.38 91.731 M 48.424 79.925 L 48.424 101.118 M 61.475 68.785 L 61.475 111.307 M 73.982 76.911 L 73.982 104.132 M 118.028 134.809 L 118.028 156.002 M 130.672 124.077 L 130.672 167.142 M 142.907 131.795 L 142.907 158.312"
        fill="none"
        stroke="#000000"
        stroke-width="8"
        stroke-linecap="round"
        stroke-linejoin="round"/>
    <path
        id="path_1"
        d="M 104.026 76.911 L 103.346 150.84 C 103.346 159.016 90.884 176.763 73.982 175.429 C 49.876 173.525 41.203 146.424 61.475 133.451 C 70.343 127.775 77.821 127.749 85.809 128.781 L 87.168 40.935 C 95.752 52.019 107.508 59.509 120.203 67.426 C 142.528 81.348 151.367 102.457 133.687 115.789 C 132.663 106.337 133.116 96.373 123.058 90.046 C 116.88 85.578 110.347 80.773 104.026 76.911 Z"
        fill="none"
        stroke="#000000"
        stroke-width="8"
        stroke-linecap="round"
        stroke-linejoin="round"/>
</svg>
